src/assets/icons/adwaita/mimetypes/oasis-master-document.svg

<?xml version="1.0" encoding="UTF-8" standalone="no"?>
<svg
   height="128px"
   viewBox="0 0 128 128"
   width="128px"
   version="1.1"
   id="oasis_master_document_svg35"
   xmlns="http://www.w3.org/2000/svg"
   xmlns:svg="http://www.w3.org/2000/svg">
  <defs
     id="oasis_master_document_defs39" />
  <linearGradient
     id="oasis_master_document_a"
     gradientUnits="userSpaceOnUse"
     x1="36"
     x2="60"
     y1="68"
     y2="68">
    <stop
       offset="0"
       stop-color="#ed336c"
       id="oasis_master_document_stop2" />
    <stop
       offset="1"
       stop-color="#ffa348"
       id="oasis_master_document_stop4" />
  </linearGradient>
  <linearGradient
     id="oasis_master_document_b"
     gradientTransform="matrix(0 1 -1 0 144 -32)"
     gradientUnits="userSpaceOnUse"
     x1="72"
     x2="96"
     y1="68"
     y2="68">
    <stop
       offset="0"
       stop-color="#404ce6"
       id="oasis_master_document_stop7" />
    <stop
       offset="1"
       stop-color="#c061cb"
       id="oasis_master_document_stop9" />
  </linearGradient>
  <linearGradient
     id="oasis_master_document_c"
     gradientUnits="userSpaceOnUse"
     x1="68.84919"
     x2="95.257637"
     y1="84"
     y2="84">
    <stop
       offset="0"
       stop-color="#33d1c6"
       id="oasis_master_document_stop12" />
    <stop
       offset="1"
       stop-color="#1c25d8"
       id="oasis_master_document_stop14" />
  </linearGradient>
  <path
     style="display:inline;fill:#666666;fill-opacity:1;stroke:none;stroke-width:0.125;stroke-linejoin:round;stroke-miterlimit:4;stroke-dasharray:none;stroke-opacity:1;enable-background:new"
     clip-path="none"
     d="m 27.978072,8.0000006 h 50.000002 l 30.042896,29.9178934 10e-4,74.060006 c 8e-5,4.432 -3.6122,8.0221 -8.044196,8.0221 H 27.978011 c -4.431999,0 -7.999999,-3.568 -7.999999,-8.00001 V 16 c 0,-4.431999 3.568,-7.9999994 7.999999,-7.9999994 z"
     id="oasis_master_document_path4411" />
  <path
     style="display:inline;vector-effect:none;fill:#9a9996;fill-opacity:1;stroke:none;stroke-width:0.125;stroke-linecap:butt;stroke-linejoin:round;stroke-miterlimit:4;stroke-dasharray:none;stroke-dashoffset:0;stroke-opacity:1;enable-background:new"
     d="M 77.978074,8.0000006 V 30.000002 c 0,4.432 3.610527,7.923448 8.042527,7.923448 l 22.000369,-0.0055 z"
     id="oasis_master_document_path4413" />
  <g
     id="oasis_master_document_g1">
    <path
       d="m 42.916658,58.004167 c -1.061833,0 -1.916667,0.854834 -1.916667,1.916667 v 15.333333 c 0,1.061834 0.854834,1.916667 1.916667,1.916667 h 15.333333 c 1.061833,0 1.916667,-0.854833 1.916667,-1.916667 V 72.214449 L 45.956491,58.004282 Z m 8.460166,0 8.789834,8.789834 v -6.873167 c 0,-1.061833 -0.854834,-1.916667 -1.916667,-1.916667 z"
       id="oasis_master_document_path3-2"
       style="fill:#1a85d1;fill-rule:evenodd;stroke-width:7.66667;stroke-linecap:round;fill-opacity:1" />
    <path
       d="m 42.916658,84.837501 c -1.061833,0 -1.916667,0.854833 -1.916667,1.916666 V 102.0875 c 0,1.06183 0.854834,1.91667 1.916667,1.91667 h 15.333333 c 1.061833,0 1.916667,-0.85484 1.916667,-1.91667 V 99.047782 L 45.956491,84.837615 Z m 8.460166,0 8.789834,8.789833 v -6.873167 c 0,-1.061833 -0.854834,-1.916666 -1.916667,-1.916666 z"
       id="oasis_master_document_path4-9"
       style="fill:#e75729;fill-rule:evenodd;stroke-width:7.66667;stroke-linecap:round;fill-opacity:1" />
    <path
       d="m 69.749991,58.004167 c -1.061833,0 -1.916667,0.854834 -1.916667,1.916667 v 15.333333 c 0,1.061834 0.854834,1.916667 1.916667,1.916667 h 15.333333 c 1.061833,0 1.916667,-0.854833 1.916667,-1.916667 V 72.214449 L 72.789824,58.004282 Z m 8.460167,0 8.789833,8.789834 v -6.873167 c 0,-1.061833 -0.854834,-1.916667 -1.916667,-1.916667 z"
       id="oasis_master_document_path5"
       style="fill:#3cbc45;fill-rule:evenodd;stroke-width:7.66667;stroke-linecap:round;fill-opacity:1" />
    <path
       d="m 69.749991,84.837501 c -1.061833,0 -1.916667,0.854833 -1.916667,1.916666 V 102.0875 c 0,1.06183 0.854834,1.91667 1.916667,1.91667 h 15.333333 c 1.061833,0 1.916667,-0.85484 1.916667,-1.91667 V 99.047782 L 72.789824,84.837615 Z m 8.460167,0 8.789833,8.789833 v -6.873167 c 0,-1.061833 -0.854834,-1.916666 -1.916667,-1.916666 z"
       id="oasis_master_document_path6"
       style="fill:#e5b443;fill-rule:evenodd;stroke-width:7.66667;stroke-linecap:round;fill-opacity:1" />
  </g>
</svg>

<svg xmlns="http://www.w3.org/2000/svg" width="128" height="128" viewBox="0 0 128 128"><path d="M27.978 8h50l30.043 29.918.001 74.06c0 4.432-3.612 8.022-8.044 8.022h-72c-4.432 0-8-3.568-8-8V16c0-4.432 3.568-8 8-8" style="display:inline;fill:#666;fill-opacity:1;stroke:none;stroke-width:.125;stroke-linejoin:round;stroke-miterlimit:4;stroke-dasharray:none;stroke-opacity:1"/><path d="M77.978 8v22c0 4.432 3.61 7.923 8.043 7.923l22-.005z" style="display:inline;vector-effect:none;fill:#9a9996;fill-opacity:1;stroke:none;stroke-width:.125;stroke-linecap:butt;stroke-linejoin:round;stroke-miterlimit:4;stroke-dasharray:none;stroke-dashoffset:0;stroke-opacity:1"/><path d="M42.917 58.004A1.91 1.91 0 0 0 41 59.921v15.333c0 1.062.855 1.917 1.917 1.917H58.25a1.91 1.91 0 0 0 1.917-1.917v-3.04l-14.21-14.21Zm8.46 0 8.79 8.79v-6.873a1.91 1.91 0 0 0-1.917-1.917z" style="fill:#1a85d1;fill-rule:evenodd;stroke-width:7.66667;stroke-linecap:round;fill-opacity:1"/><path d="M42.917 84.838A1.91 1.91 0 0 0 41 86.754v15.334c0 1.061.855 1.916 1.917 1.916H58.25a1.91 1.91 0 0 0 1.917-1.917v-3.04l-14.21-14.21Zm8.46 0 8.79 8.79v-6.874a1.91 1.91 0 0 0-1.917-1.916z" style="fill:#e75729;fill-rule:evenodd;stroke-width:7.66667;stroke-linecap:round;fill-opacity:1"/><path d="M69.75 58.004a1.91 1.91 0 0 0-1.917 1.917v15.333c0 1.062.855 1.917 1.917 1.917h15.333A1.91 1.91 0 0 0 87 75.254v-3.04l-14.21-14.21Zm8.46 0 8.79 8.79v-6.873a1.91 1.91 0 0 0-1.917-1.917z" style="fill:#3cbc45;fill-rule:evenodd;stroke-width:7.66667;stroke-linecap:round;fill-opacity:1"/><path d="M69.75 84.838a1.91 1.91 0 0 0-1.917 1.916v15.334c0 1.061.855 1.916 1.917 1.916h15.333A1.91 1.91 0 0 0 87 102.087v-3.04l-14.21-14.21Zm8.46 0 8.79 8.79v-6.874a1.91 1.91 0 0 0-1.917-1.916z" style="fill:#e5b443;fill-rule:evenodd;stroke-width:7.66667;stroke-linecap:round;fill-opacity:1"/></svg>
